src/topics/icons/productboard.svg

<svg height="171" preserveAspectRatio="xMidYMid" viewBox="0 0 256 171" width="256" xmlns="http://www.w3.org/2000/svg"><path d="m0 171h85.489l1.34-2.672v-78.408l-1.34-3.941z" fill="#fedd77"/><path d="m85.4892 171h85.49l-2.406-5.73-78.35-77.921-4.734-1.37z" fill="#fbae42"/><path d="m0 .9576 85.489 85.021 2.175-4.4v-76.739l-2.175-3.882z" fill="#51bbe5"/><path d="m85.4892.9576v85.021l5.233-2.453 77.573-76.462 2.684-6.106z" fill="#139cd4"/><path d="m87.5835 84.6054-2.562 1.373 85.489 85.022 1.678-3.784v-79.242l-1.678-1.996-1.842-1.373z" fill="#d13729"/><path d="m174.1347 83.5254-3.624 2.453v85.022l85.489-85.022-3.735-2.453z" fill="#8f2319"/><path d="m170.5104.9576-85.489 85.021h85.489l1.678-4.955v-77.019z" fill="#eb5246"/><path d="m170.5104.9576v85.021h85.489z" fill="#ae291d"/></svg>

<?xml version="1.0" encoding="UTF-8" standalone="no"?>
<svg width="256px" height="171px" viewBox="0 0 256 171" version="1.1" xmlns="http://www.w3.org/2000/svg" xmlns:xlink="http://www.w3.org/1999/xlink" preserveAspectRatio="xMidYMid">
	<g>
		<path d="M0,171 L85.489,171 L86.829,168.328 L86.829,89.92 L85.489,85.979 L0,171 Z" fill="#FEDD77"></path>
		<path d="M85.4892,171 L170.9792,171 L168.5732,165.27 L90.2232,87.349 L85.4892,85.979 L85.4892,171 Z" fill="#FBAE42"></path>
		<path d="M0,0.9576 L85.489,85.9786 L87.664,81.5786 L87.664,4.8396 L85.489,0.9576 L0,0.9576 Z" fill="#51BBE5"></path>
		<path d="M85.4892,0.9576 L85.4892,85.9786 L90.7222,83.5256 L168.2952,7.0636 L170.9792,0.9576 L85.4892,0.9576 Z" fill="#139CD4"></path>
		<path d="M87.5835,84.6054 L85.0215,85.9784 L170.5105,171.0004 L172.1885,167.2164 L172.1885,87.9744 L170.5105,85.9784 L168.6685,84.6054 L87.5835,84.6054 Z" fill="#D13729"></path>
		<path d="M174.1347,83.5254 L170.5107,85.9784 L170.5107,171.0004 L255.9997,85.9784 L252.2647,83.5254 L174.1347,83.5254 Z" fill="#8F2319"></path>
		<path d="M170.5104,0.9576 L85.0214,85.9786 L170.5104,85.9786 L172.1884,81.0236 L172.1884,4.0046 L170.5104,0.9576 Z" fill="#EB5246"></path>
		<path d="M170.5104,0.9576 L170.5104,85.9786 L255.9994,85.9786 L170.5104,0.9576 Z" fill="#AE291D"></path>
	</g>
</svg>
